assets/icons/Trash.svg

<svg fill="none" height="20" viewBox="0 0 18 20" width="18" xmlns="http://www.w3.org/2000/svg"><path clip-rule="evenodd" d="m10.7812 15.6604v-8.49059c0-.31321.2522-.56604.5626-.56604.3112 0 .5624.25283.5624.56604v8.49059c0 .3132-.2512.566-.5624.566-.3104 0-.5626-.2528-.5626-.566zm-4.68745 0v-8.49059c0-.31321.25219-.56604.5625-.56604.31125 0 .5625.25283.5625.56604v8.49059c0 .3132-.25125.566-.5625.566-.31031 0-.5625-.2528-.5625-.566zm8.90625.9434c0 1.2481-1.0097 2.2641-2.25 2.2641h-7.5c-1.24031 0-2.25-1.016-2.25-2.2641v-12.64154h12zm-7.78125-15.09437c0-.20849.16781-.37735.375-.37735h2.81245c.2072 0 .375.16886.375.37735v1.32076h-3.56245zm10.21875 1.32076h-5.5313v-1.32076c0-.832071-.6731-1.50943-1.5-1.50943h-2.81245c-.82687 0-1.5.677359-1.5 1.50943v1.32076h-5.53125c-.310313 0-.5625.25283-.5625.56604 0 .3132.252187.56603.5625.56603h1.3125v12.64154c0 1.8726 1.51406 3.3962 3.375 3.3962h7.5c1.8609 0 3.375-1.5236 3.375-3.3962v-12.64154h1.3125c.3113 0 .5625-.25283.5625-.56603 0-.31321-.2512-.56604-.5625-.56604z" fill="#ff4848" fill-rule="evenodd"/></svg>

<svg width="18" height="20" viewBox="0 0 18 20" fill="none" xmlns="http://www.w3.org/2000/svg">
<path fill-rule="evenodd" clip-rule="evenodd" d="M10.7812 15.6604V7.16981C10.7812 6.8566 11.0334 6.60377 11.3438 6.60377C11.655 6.60377 11.9062 6.8566 11.9062 7.16981V15.6604C11.9062 15.9736 11.655 16.2264 11.3438 16.2264C11.0334 16.2264 10.7812 15.9736 10.7812 15.6604ZM6.09375 15.6604V7.16981C6.09375 6.8566 6.34594 6.60377 6.65625 6.60377C6.9675 6.60377 7.21875 6.8566 7.21875 7.16981V15.6604C7.21875 15.9736 6.9675 16.2264 6.65625 16.2264C6.34594 16.2264 6.09375 15.9736 6.09375 15.6604ZM15 16.6038C15 17.8519 13.9903 18.8679 12.75 18.8679H5.25C4.00969 18.8679 3 17.8519 3 16.6038V3.96226H15V16.6038ZM7.21875 1.50943C7.21875 1.30094 7.38656 1.13208 7.59375 1.13208H10.4062C10.6134 1.13208 10.7812 1.30094 10.7812 1.50943V2.83019H7.21875V1.50943ZM17.4375 2.83019H11.9062V1.50943C11.9062 0.677359 11.2331 0 10.4062 0H7.59375C6.76688 0 6.09375 0.677359 6.09375 1.50943V2.83019H0.5625C0.252187 2.83019 0 3.08302 0 3.39623C0 3.70943 0.252187 3.96226 0.5625 3.96226H1.875V16.6038C1.875 18.4764 3.38906 20 5.25 20H12.75C14.6109 20 16.125 18.4764 16.125 16.6038V3.96226H17.4375C17.7488 3.96226 18 3.70943 18 3.39623C18 3.08302 17.7488 2.83019 17.4375 2.83019Z" fill="#FF4848"/>
</svg>
